X: 2804
T: Bantry Bay
R: hornpipe
M: 4/4
K: Gmajor
GA|BGAG EGDE|G2 GF G2 BAG|EAAB cBAG|EGAB A2 AB|
cecA BdBG|ABAG EGDG|BGAG EGDE|G2 GF G2:|
Bc|d2 de dBGA|B2 e e3 f|gfed BGBd|g2 fa g2 ef|
gagf efed|BGAG EGDG|BGAG EGDE|G2 GF G2:|

